X:20
T:Black Mare’s Anticks. HA.021, The
M:6/4
L:1/4
Q:3/4=80
S:Henry Atkinson’s original MS,Hartburn,N’umberland,1694.
R:.Jigg
O:England
A:Hartburn,Northumberland
N:Somebody has added in pencil the words “Gee Woe Doddin”, But it’s not
N:the same as the “Dobbin” I’ve got.(See #014).CGP
H:1/4
Z:vmp.Chris Partington.Jan.2004
K:Bb
fga b2a|”^cr”g>fg fd2|”^cr”e>dc fBc|c2B “^cr”B3||
BFE DB,2|”^cr”E>F (G/F/) GC2|DEF GAB|B2A “^cr”B3|]
W:cr=crotchet in MS

